X:14994
T:Schottische a Dede
M:2/2
L:1/8
R:Schottische
Z:Steve Mansfield
K:Cm
c2e2g2e2|dedc d4|defe dc=Bc|d2e2 d2c2|c2e2g2e2|dedc d4|defe dcde|d2=B2 d
4:|K:C G2c2e2c2|BcBA G4|Bcde dcBc|defd e2c2|G2c2e2c2|BcBA G4|Bcde dcBc|d
2B2 c4:|
